public/logostiktok.svg

<svg width="51" height="50" viewBox="0 0 51 50" fill="none" xmlns="http://www.w3.org/2000/svg">
<g clip-path="url(#clip0_1852_167)">
<path d="M37.5549 18.0047C41.2029 20.3056 45.6721 21.6594 50.4988 21.6594V13.4645C49.5853 13.4647 48.6742 13.3806 47.7805 13.2135V19.664C42.9541 19.664 38.4855 18.3104 34.8367 16.0097V32.7332C34.8367 41.0992 27.15 47.8806 17.6687 47.8806C14.1311 47.8806 10.8428 46.937 8.11133 45.3185C11.2289 48.1311 15.5766 49.8757 20.3863 49.8757C29.8684 49.8757 37.5553 43.0944 37.5553 34.728V18.0047H37.5549ZM40.9084 9.73713C39.0439 7.94006 37.8197 5.61765 37.5549 3.05006V1.99609H34.9789C35.6273 5.25937 37.8393 8.0473 40.9084 9.73713ZM14.1082 38.8989C13.0666 37.6939 12.5035 36.2197 12.5061 34.704C12.5061 30.8778 16.0219 27.7754 20.3596 27.7754C21.1678 27.775 21.9713 27.8845 22.7418 28.1001V19.722C21.8414 19.6132 20.9328 19.5668 20.0246 19.5839V26.1049C19.2538 25.8892 18.4498 25.7798 17.6412 25.7804C13.3037 25.7804 9.78809 28.8825 9.78809 32.7092C9.78809 35.4151 11.5453 37.7576 14.1082 38.8989Z" fill="#FF004F"/>
<path d="M34.8371 16.0095C38.4861 18.3102 42.9543 19.6639 47.7809 19.6639V13.2133C45.0867 12.707 42.7018 11.4649 40.9086 9.73713C37.8393 8.04713 35.6277 5.2592 34.9793 1.99609H28.2131V34.7276C28.1977 38.5435 24.6879 41.6332 20.3596 41.6332C17.8092 41.6332 15.5432 40.5606 14.1082 38.8987C11.5457 37.7576 9.78828 35.4149 9.78828 32.7094C9.78828 28.883 13.3039 25.7806 17.6414 25.7806C18.4725 25.7806 19.2734 25.8947 20.0248 26.1051V19.584C10.71 19.7539 3.21875 26.469 3.21875 34.7278C3.21875 38.8506 5.08418 42.588 8.11191 45.3188C10.8434 46.937 14.1314 47.8809 17.6693 47.8809C27.1508 47.8809 34.8373 41.099 34.8373 32.7332V16.0097L34.8371 16.0095Z" fill="black"/>
<path d="M47.7803 13.2121V11.4683C45.3508 11.4715 42.9693 10.8712 40.908 9.73603C42.7326 11.4985 45.1352 12.7138 47.7803 13.2124V13.2121ZM34.9785 1.99483C34.9167 1.68304 34.8693 1.36916 34.8363 1.05397V0H25.4938V32.7319C25.4789 36.5474 21.9691 39.6371 17.6406 39.6371C16.4135 39.6387 15.2032 39.3855 14.1074 38.8979C15.5424 40.5595 17.8084 41.6319 20.3588 41.6319C24.6869 41.6319 28.1971 38.5426 28.2123 34.7267V1.995H34.9785V1.99483ZM20.0246 19.5828V17.726C19.2439 17.6318 18.4569 17.5847 17.6689 17.585C8.18652 17.585 0.5 24.3667 0.5 32.7319C0.5 37.9766 3.5209 42.5986 8.11152 45.3174C5.08379 42.5867 3.21836 38.8491 3.21836 34.7266C3.21836 26.4679 10.7094 19.7526 20.0246 19.5828Z" fill="#00F2EA"/>
</g>
<defs>
<clipPath id="clip0_1852_167">
<rect width="50" height="50" fill="white" transform="translate(0.5)"/>
</clipPath>
</defs>
</svg>

<svg width="51" height="50" fill="none" xmlns="http://www.w3.org/2000/svg"><g clip-path="url(#a)"><path d="M37.555 18.005c3.648 2.3 8.117 3.654 12.944 3.654v-8.194c-.914 0-1.825-.084-2.718-.252v6.451c-4.827 0-9.295-1.354-12.944-3.654v16.723c0 8.366-7.687 15.148-17.168 15.148-3.538 0-6.826-.944-9.558-2.563 3.118 2.813 7.466 4.558 12.275 4.558 9.482 0 17.17-6.782 17.17-15.148V18.005h-.001zm3.353-8.268c-1.864-1.797-3.088-4.12-3.353-6.687V1.996h-2.576c.648 3.263 2.86 6.051 5.93 7.741zM14.108 38.9c-1.041-1.205-1.604-2.68-1.602-4.195 0-3.826 3.516-6.929 7.854-6.929.808 0 1.611.11 2.382.325v-8.378c-.9-.109-1.81-.155-2.717-.138v6.52a8.83 8.83 0 0 0-2.384-.324c-4.337 0-7.853 3.102-7.853 6.93 0 2.705 1.757 5.048 4.32 6.189z" fill="#FF004F"/><path d="M34.837 16.01c3.65 2.3 8.117 3.654 12.944 3.654v-6.45c-2.694-.507-5.08-1.75-6.872-3.477-3.07-1.69-5.281-4.478-5.93-7.74h-6.766v32.73c-.015 3.817-3.525 6.906-7.853 6.906-2.55 0-4.817-1.072-6.252-2.734-2.562-1.141-4.32-3.484-4.32-6.19 0-3.826 3.516-6.928 7.853-6.928.832 0 1.632.114 2.384.324v-6.521c-9.315.17-16.806 6.885-16.806 15.144 0 4.123 1.865 7.86 4.893 10.59 2.731 1.619 6.02 2.563 9.557 2.563 9.482 0 17.168-6.782 17.168-15.148V16.01z" fill="#000"/><path d="M47.78 13.212v-1.744c-2.43.004-4.81-.597-6.872-1.732 1.825 1.762 4.227 2.978 6.872 3.476zM34.978 1.995c-.061-.312-.109-.626-.142-.941V0h-9.342v32.732c-.015 3.815-3.525 6.905-7.853 6.905a8.683 8.683 0 0 1-3.534-.74c1.435 1.663 3.701 2.735 6.252 2.735 4.328 0 7.838-3.09 7.853-6.905V1.995h6.766zM20.025 19.583v-1.857a19.607 19.607 0 0 0-2.356-.141C8.187 17.585.5 24.367.5 32.732c0 5.245 3.02 9.867 7.612 12.585-3.028-2.73-4.894-6.468-4.894-10.59 0-8.26 7.491-14.974 16.807-15.144z" fill="#00F2EA"/></g><defs><clipPath id="a"><path fill="#fff" transform="translate(.5)" d="M0 0h50v50H0z"/></clipPath></defs></svg>
